; generated by PrusaSlicer 2.1.0+linux64 on 2020-08-24 at 20:50:44 UTC

; 

; external perimeters extrusion width = 0.45mm
; perimeters extrusion width = 0.45mm
; infill extrusion width = 0.45mm
; solid infill extrusion width = 0.45mm
; top infill extrusion width = 0.40mm
; support material extrusion width = 0.35mm
; first layer extrusion width = 0.42mm

M73 P0 R82
M73 Q0 S82
M201 X1000 Y1000 Z1000 E5000 ; sets maximum accelerations, mm/sec^2
M203 X200 Y200 Z12 E120 ; sets maximum feedrates, mm/sec
M204 P1250 R1250 T1250 ; sets acceleration (P, T) and retract acceleration (R), mm/sec^2
M205 X8.00 Y8.00 Z0.40 E1.50 ; sets the jerk limits, mm/sec
M205 S0 T0 ; sets the minimum extruding and travel feed rate, mm/sec
M107
M862.3 P "MK3S" ; printer model check
M862.1 P0.4 ; nozzle diameter check
M115 U3.8.1 ; tell printer latest fw version
G90 ; use absolute coordinates
M83 ; extruder relative mode
M104 S215 ; set extruder temp
M140 S60 ; set bed temp
M190 S60 ; wait for bed temp
M109 S215 ; wait for extruder temp
G28 W ; home all without mesh bed level
G80 ; mesh bed leveling
G1 Y-3.0 F1000.0 ; go outside print area
G92 E0.0
G1 X60.0 E9.0 F1000.0 ; intro line
M73 Q0 S82
M73 P0 R81
G1 X100.0 E12.5 F1000.0 ; intro line
G92 E0.0
M221 S95
G21 ; set units to millimeters
G90 ; use absolute coordinates
M83 ; use relative distances for extrusion
M900 K30 ; Filament gcode
;BEFORE_LAYER_CHANGE
G92 E0.0
;0.2


G1 E-0.80000 F2100.00000
G1 Z0.600 F10800.000
;AFTER_LAYER_CHANGE
;0.2
G1 X98.377 Y149.271
G1 Z0.200
G1 E0.80000 F2100.00000
M204 S1000
G1 F1200
G1 X97.929 Y148.462 E0.02900
G1 X93.474 Y131.790 E0.54108
G1 X93.312 Y130.515 E0.04028
G1 X93.343 Y79.939 E1.58578
G1 X93.672 Y78.599 E0.04328
G1 X98.788 Y66.035 E0.42534
G1 X99.087 Y65.556 E0.01771
G1 X99.499 Y65.169 E0.01771
G1 X100.515 Y64.546 E0.03737
G1 X101.138 Y64.342 E0.02055
G1 X140.505 Y59.061 E1.24538
G1 X141.274 Y59.122 E0.02420
G1 X142.357 Y59.405 E0.03508
G1 X155.408 Y64.509 E0.43937
G1 X155.957 Y64.867 E0.02055
G1 X156.761 Y65.713 E0.03661
G1 X157.054 Y66.171 E0.01703
G1 X157.226 Y66.690 E0.01714
G1 X157.267 Y142.060 E2.36317
G1 X157.070 Y142.963 E0.02900
G1 X156.629 Y143.600 E0.02428
G1 X150.987 Y149.231 E0.24993
G1 X150.438 Y149.620 E0.02112
G1 X149.760 Y149.830 E0.02225
G1 X141.134 Y150.900 E0.27251
G1 X140.455 Y150.938 E0.02134
G1 X99.968 Y150.019 E1.26977
G1 X99.116 Y149.822 E0.02743
G1 X98.425 Y149.307 E0.02701
G1 F8640
G1 X97.929 Y148.462 E-0.22627
G1 X97.332 Y146.229 E-0.53373
G1 E-0.04000 F2100.00000
G1 Z0.800 F10800.000
G1 X100.025 Y147.831
G1 Z0.200
G1 E0.80000 F2100.00000
G1 F1200
G1 X100.025 Y137.914 E0.31095
G1 X100.264 Y137.914 E0.00748
G1 X100.264 Y133.908 E0.12561
G1 X100.779 Y133.908 E0.01616
G1 X100.779 Y147.661 E0.43124
G1 X101.533 Y147.661 E0.02365
G1 X101.533 Y140.914 E0.21157
G1 X102.287 Y140.914 E0.02365
G1 X102.287 Y147.661 E0.21157
G1 X103.042 Y147.661 E0.02365
G1 X103.042 Y140.914 E0.21157
G1 X103.796 Y140.914 E0.02365
G1 X103.796 Y147.661 E0.21157
G1 X104.550 Y147.661 E0.02365
G1 X104.550 Y140.914 E0.21157
G1 X105.304 Y140.914 E0.02365
G1 X105.304 Y147.661 E0.21157
G1 X106.058 Y147.661 E0.02365
G1 X106.058 Y140.914 E0.21157
G1 X106.812 Y140.914 E0.02365
G1 X106.812 Y147.661 E0.21157
G1 X107.567 Y147.661 E0.02365
G1 X107.567 Y140.914 E0.21157
G1 X108.321 Y140.914 E0.02365
G1 X108.321 Y147.661 E0.21157
G1 X109.075 Y147.661 E0.02365
G1 X109.075 Y140.914 E0.21157
G1 X109.829 Y140.914 E0.02365
G1 X109.829 Y147.661 E0.21157
G1 X110.583 Y147.661 E0.02365
G1 X110.583 Y140.914 E0.21157
G1 X111.337 Y140.914 E0.02365
G1 X111.337 Y147.661 E0.21157
G1 X112.091 Y147.661 E0.02365
G1 X112.091 Y140.914 E0.21157
G1 X112.846 Y140.914 E0.02365
G1 X112.846 Y147.661 E0.21157
G1 X113.600 Y147.661 E0.02365
G1 X113.600 Y140.914 E0.21157
G1 X114.354 Y140.914 E0.02365
G1 X114.354 Y147.661 E0.21157
G1 X115.108 Y147.661 E0.02365
G1 X115.108 Y140.914 E0.21157
G1 X115.862 Y140.914 E0.02365
G1 X115.862 Y147.661 E0.21157
G1 X116.616 Y147.661 E0.02365
G1 X116.616 Y140.914 E0.21157
G1 X117.371 Y140.914 E0.02365
G1 X117.371 Y147.661 E0.21157
G1 X118.125 Y147.661 E0.02365
G1 X118.125 Y140.914 E0.21157
G1 X118.879 Y140.914 E0.02365
G1 X118.879 Y147.661 E0.21157
G1 X119.633 Y147.661 E0.02365
G1 X119.633 Y140.914 E0.21157
G1 X120.387 Y140.914 E0.02365
G1 X120.387 Y147.661 E0.21157
G1 X121.141 Y147.661 E0.02365
G1 X121.141 Y140.914 E0.21157
G1 X121.896 Y140.914 E0.02365
G1 X121.896 Y147.661 E0.21157
G1 X122.650 Y147.661 E0.02365
G1 X122.650 Y140.914 E0.21157
G1 X123.404 Y140.914 E0.02365
G1 X123.404 Y147.661 E0.21157
G1 X124.158 Y147.661 E0.02365
G1 X124.158 Y140.914 E0.21157
G1 X124.912 Y140.914 E0.02365
G1 X124.912 Y147.661 E0.21157
G1 X125.666 Y147.661 E0.02365
G1 X125.666 Y140.914 E0.21157
G1 X126.421 Y140.914 E0.02365
G1 X126.421 Y147.661 E0.21157
G1 X127.175 Y147.661 E0.02365
G1 X127.175 Y140.914 E0.21157
G1 X127.929 Y140.914 E0.02365
G1 X127.929 Y147.661 E0.21157
G1 X128.683 Y147.661 E0.02365
G1 X128.683 Y140.914 E0.21157
G1 X129.437 Y140.914 E0.02365
G1 X129.437 Y147.661 E0.21157
G1 X130.191 Y147.661 E0.02365
G1 X130.191 Y140.914 E0.21157
G1 X130.945 Y140.914 E0.02365
G1 X130.945 Y147.661 E0.21157
G1 X131.700 Y147.661 E0.02365
G1 X131.700 Y140.914 E0.21157
G1 X132.454 Y140.914 E0.02365
G1 X132.454 Y147.661 E0.21157
G1 X133.208 Y147.661 E0.02365
G1 X133.208 Y140.914 E0.21157
G1 X133.962 Y140.914 E0.02365
G1 X133.962 Y147.661 E0.21157
G1 X134.716 Y147.661 E0.02365
G1 X134.716 Y140.914 E0.21157
G1 X135.470 Y140.914 E0.02365
G1 X135.470 Y147.661 E0.21157
G1 X136.225 Y147.661 E0.02365
G1 X136.225 Y140.914 E0.21157
G1 X136.979 Y140.914 E0.02365
G1 X136.979 Y147.831 E0.21689
G1 F8640
G1 X136.979 Y144.540 E-0.76000
G1 E-0.04000 F2100.00000
G1 Z0.800 F10800.000
G1 X139.995 Y146.311
G1 Z0.200
G1 E0.80000 F2100.00000
G1 F1200
G1 X139.995 Y145.189 E0.03520
G1 F8640
G1 X139.995 Y146.311 E-0.25922
G1 E-0.54078 F2100.00000
G1 Z0.800 F10800.000
G1 X143.766 Y147.831
G1 Z0.200
G1 E0.80000 F2100.00000
G1 F1200
G1 X143.766 Y146.731 E0.03448
G1 X143.856 Y146.377 E0.01147
G1 X143.908 Y145.951 E0.01344
G1 X143.908 Y140.914 E0.15796
G1 X144.520 Y140.914 E0.01921
G1 X144.520 Y147.661 E0.21157
G1 X145.274 Y147.661 E0.02365
G1 X145.274 Y140.914 E0.21157
G1 X146.029 Y140.914 E0.02365
G1 X146.029 Y147.661 E0.21157
G1 X146.783 Y147.661 E0.02365
G1 X146.783 Y140.914 E0.21157
G1 X147.537 Y140.914 E0.02365
G1 X147.537 Y147.661 E0.21157
G1 X148.291 Y147.661 E0.02365
G1 X148.291 Y140.914 E0.21157
G1 X149.045 Y140.914 E0.02365
G1 X149.045 Y147.661 E0.21157
G1 X149.462 Y147.661 E0.01307
G1 X149.462 Y141.886 E0.18107
G1 X149.799 Y141.886 E0.01058
G1 X149.799 Y140.914 E0.03050
G1 X150.554 Y140.914 E0.02365
G1 X150.554 Y141.886 E0.03050
G1 X151.308 Y141.886 E0.02365
G1 X151.308 Y140.914 E0.03050
G1 X152.062 Y140.914 E0.02365
G1 X152.062 Y141.886 E0.03050
G1 X152.816 Y141.886 E0.02365
G1 X152.816 Y140.914 E0.03050
G1 X153.570 Y140.914 E0.02365
G1 X153.570 Y141.886 E0.03050
G1 X154.324 Y141.886 E0.02365
G1 X154.324 Y140.914 E0.03050
G1 X154.671 Y140.914 E0.01088
G1 X154.914 Y140.671 E0.01074
G1 X154.914 Y67.114 E2.30635
G1 X155.079 Y67.114 E0.00517
G1 X155.079 Y142.056 E2.34977
G1 F8640
G1 X155.079 Y138.765 E-0.76000
G1 E-0.04000 F2100.00000
G1 Z0.800 F10800.000
G1 X152.062 Y139.056
G1 Z0.200
G1 E0.80000 F2100.00000
G1 F1200
G1 X152.062 Y70.114 E2.16165
G1 X151.308 Y70.114 E0.02365
G1 X151.308 Y138.886 E2.15633
G1 X150.554 Y138.886 E0.02365
G1 X150.554 Y70.114 E2.15633
M73 Q1 S81
M73 P1 R80
G1 X149.799 Y70.114 E0.02365
G1 X149.799 Y138.886 E2.15633
G1 X149.045 Y138.886 E0.02365
G1 X149.045 Y70.114 E2.15633
G1 X148.291 Y70.114 E0.02365
G1 X148.291 Y138.886 E2.15633
G1 X147.537 Y138.886 E0.02365
G1 X147.537 Y70.114 E2.15633
G1 X146.783 Y70.114 E0.02365
G1 X146.783 Y138.886 E2.15633
G1 X146.029 Y138.886 E0.02365
G1 X146.029 Y70.114 E2.15633
G1 X145.274 Y70.114 E0.02365
G1 X145.274 Y138.886 E2.15633
G1 X144.520 Y138.886 E0.02365
G1 X144.520 Y70.114 E2.15633
G1 X143.766 Y70.114 E0.02365
G1 X143.766 Y138.886 E2.15633
G1 X143.012 Y138.886 E0.02365
G1 X143.012 Y70.114 E2.15633
G1 X142.258 Y70.114 E0.02365
G1 X142.258 Y138.886 E2.15633
G1 X141.504 Y138.886 E0.02365
G1 X141.504 Y70.114 E2.15633
G1 X140.750 Y70.114 E0.02365
G1 X140.750 Y138.886 E2.15633
G1 X139.995 Y138.886 E0.02365
G1 X139.995 Y70.114 E2.15633
G1 X139.241 Y70.114 E0.02365
G1 X139.241 Y138.886 E2.15633
G1 X138.487 Y138.886 E0.02365
G1 X138.487 Y132.450 E0.20182
G1 X137.733 Y132.450 E0.02365
G1 X137.733 Y138.886 E0.20182
G1 X136.979 Y138.886 E0.02365
G1 X136.979 Y132.450 E0.20182
G1 X136.225 Y132.450 E0.02365
G1 X136.225 Y138.886 E0.20182
G1 X135.470 Y138.886 E0.02365
G1 X135.470 Y132.450 E0.20182
G1 X134.716 Y132.450 E0.02365
G1 X134.716 Y138.886 E0.20182
G1 X133.962 Y138.886 E0.02365
G1 X133.962 Y132.450 E0.20182
G1 X133.208 Y132.450 E0.02365
G1 X133.208 Y138.886 E0.20182
G1 X132.454 Y138.886 E0.02365
G1 X132.454 Y132.450 E0.20182
G1 X131.700 Y132.450 E0.02365
G1 X131.700 Y138.886 E0.20182
G1 X130.945 Y138.886 E0.02365
G1 X130.945 Y132.450 E0.20182
G1 X130.191 Y132.450 E0.02365
G1 X130.191 Y138.886 E0.20182
G1 X129.437 Y138.886 E0.02365
G1 X129.437 Y132.450 E0.20182
G1 X128.683 Y132.450 E0.02365
G1 X128.683 Y138.886 E0.20182
G1 X127.929 Y138.886 E0.02365
G1 X127.929 Y132.450 E0.20182
G1 X127.175 Y132.450 E0.02365
G1 X127.175 Y138.886 E0.20182
G1 X126.421 Y138.886 E0.02365
G1 X126.421 Y132.450 E0.20182
G1 X125.666 Y132.450 E0.02365
G1 X125.666 Y138.886 E0.20182
G1 X124.912 Y138.886 E0.02365
G1 X124.912 Y132.450 E0.20182
G1 X124.158 Y132.450 E0.02365
G1 X124.158 Y138.886 E0.20182
G1 X123.404 Y138.886 E0.02365
G1 X123.404 Y132.450 E0.20182
M73 Q2 S80
M73 P2 R79
G1 X122.650 Y132.450 E0.02365
G1 X122.650 Y138.886 E0.20182
G1 X121.896 Y138.886 E0.02365
G1 X121.896 Y132.450 E0.20182
G1 X121.141 Y132.450 E0.02365
G1 X121.141 Y138.886 E0.20182
G1 X120.387 Y138.886 E0.02365
G1 X120.387 Y132.450 E0.20182
G1 X119.633 Y132.450 E0.02365
G1 X119.633 Y138.886 E0.20182
G1 X118.879 Y138.886 E0.02365
G1 X118.879 Y132.450 E0.20182
G1 X118.125 Y132.450 E0.02365
G1 X118.125 Y138.886 E0.20182
G1 X117.371 Y138.886 E0.02365
G1 X117.371 Y132.450 E0.20182
G1 X116.616 Y132.450 E0.02365
G1 X116.616 Y138.886 E0.20182
G1 X115.862 Y138.886 E0.02365
G1 X115.862 Y132.450 E0.20182
G1 X115.108 Y132.450 E0.02365
G1 X115.108 Y138.886 E0.20182
G1 X114.354 Y138.886 E0.02365
G1 X114.354 Y132.450 E0.20182
G1 X113.600 Y132.450 E0.02365
G1 X113.600 Y138.886 E0.20182
G1 X112.846 Y138.886 E0.02365
G1 X112.846 Y132.450 E0.20182
G1 X112.377 Y132.450 E0.01469
G1 X112.377 Y75.809 E1.77592
G1 X112.846 Y75.809 E0.01469
G1 X112.846 Y70.114 E0.17859
G1 X113.600 Y70.114 E0.02365
G1 X113.600 Y75.809 E0.17859
G1 X114.354 Y75.809 E0.02365
G1 X114.354 Y70.114 E0.17859
G1 X115.108 Y70.114 E0.02365
G1 X115.108 Y75.809 E0.17859
G1 X115.862 Y75.809 E0.02365
G1 X115.862 Y70.114 E0.17859
G1 X116.616 Y70.114 E0.02365
G1 X116.616 Y75.809 E0.17859
G1 X117.371 Y75.809 E0.02365
G1 X117.371 Y70.114 E0.17859
G1 X118.125 Y70.114 E0.02365
G1 X118.125 Y75.809 E0.17859
G1 X118.879 Y75.809 E0.02365
G1 X118.879 Y70.114 E0.17859
G1 X119.633 Y70.114 E0.02365
G1 X119.633 Y75.809 E0.17859
G1 X120.387 Y75.809 E0.02365
G1 X120.387 Y70.114 E0.17859
G1 X121.141 Y70.114 E0.02365
G1 X121.141 Y75.809 E0.17859
G1 X121.896 Y75.809 E0.02365
G1 X121.896 Y70.114 E0.17859
G1 X122.650 Y70.114 E0.02365
G1 X122.650 Y75.809 E0.17859
G1 X123.404 Y75.809 E0.02365
G1 X123.404 Y70.114 E0.17859
G1 X124.158 Y70.114 E0.02365
G1 X124.158 Y75.809 E0.17859
G1 X124.912 Y75.809 E0.02365
G1 X124.912 Y70.114 E0.17859
G1 X125.666 Y70.114 E0.02365
G1 X125.666 Y75.809 E0.17859
G1 X126.421 Y75.809 E0.02365
G1 X126.421 Y70.114 E0.17859
G1 X127.175 Y70.114 E0.02365
G1 X127.175 Y75.809 E0.17859
G1 X127.929 Y75.809 E0.02365
G1 X127.929 Y70.114 E0.17859
G1 X128.683 Y70.114 E0.02365
G1 X128.683 Y75.809 E0.17859
G1 X129.437 Y75.809 E0.02365
G1 X129.437 Y70.114 E0.17859
G1 X130.191 Y70.114 E0.02365
G1 X130.191 Y75.809 E0.17859
G1 X130.945 Y75.809 E0.02365
G1 X130.945 Y70.114 E0.17859
G1 X131.700 Y70.114 E0.02365
G1 X131.700 Y75.809 E0.17859
G1 X132.454 Y75.809 E0.02365
G1 X132.454 Y70.114 E0.17859
G1 X133.208 Y70.114 E0.02365
G1 X133.208 Y75.809 E0.17859
G1 X133.962 Y75.809 E0.02365
G1 X133.962 Y70.114 E0.17859
G1 X134.716 Y70.114 E0.02365
G1 X134.716 Y75.809 E0.17859
G1 X135.470 Y75.809 E0.02365
G1 X135.470 Y70.114 E0.17859
G1 X136.225 Y70.114 E0.02365
G1 X136.225 Y75.809 E0.17859
G1 X136.979 Y75.809 E0.02365
G1 X136.979 Y70.114 E0.17859
G1 X137.733 Y70.114 E0.02365
G1 X137.733 Y75.809 E0.17859
G1 X138.487 Y75.809 E0.02365
G1 X138.487 Y69.944 E0.18391
G1 F8640
G1 X138.487 Y73.235 E-0.76000
G1 E-0.04000 F2100.00000
G1 Z0.800 F10800.000
G1 X100.779 Y66.944
G1 Z0.200
G1 E0.80000 F2100.00000
G1 F1200
G1 X100.779 Y77.262 E0.32352
G1 F8640
G1 X100.779 Y73.971 E-0.76000
G1 E-0.04000 F2100.00000
G1 Z0.800 F10800.000
G1 X100.779 Y83.738
G1 Z0.200
G1 E0.80000 F2100.00000
G1 F1200
G1 X100.779 Y127.262 E1.36467
G1 F8640
G1 X100.779 Y123.971 E-0.76000
G1 E-0.04000 F2100.00000
G1 Z0.800 F10800.000
G1 X103.796 Y139.056
G1 Z0.200
G1 E0.80000 F2100.00000
G1 F1200
G1 X103.796 Y70.114 E2.16165
G1 X104.550 Y70.114 E0.02365
G1 X104.550 Y138.886 E2.15633
G1 X105.304 Y138.886 E0.02365
G1 X105.304 Y70.114 E2.15633
G1 X106.058 Y70.114 E0.02365
G1 X106.058 Y138.886 E2.15633
G1 X106.812 Y138.886 E0.02365
G1 X106.812 Y70.114 E2.15633
G1 X107.567 Y70.114 E0.02365
G1 X107.567 Y138.886 E2.15633
G1 X108.321 Y138.886 E0.02365
G1 X108.321 Y70.114 E2.15633
G1 X109.075 Y70.114 E0.02365
G1 X109.075 Y138.886 E2.15633
G1 X109.829 Y138.886 E0.02365
G1 X109.829 Y70.114 E2.15633
G1 X110.583 Y70.114 E0.02365
G1 X110.583 Y138.886 E2.15633
G1 X111.337 Y138.886 E0.02365
G1 X111.337 Y70.114 E2.15633
M73 Q3 S79
M73 P3 R78
G1 X112.091 Y70.114 E0.02365
G1 X112.091 Y139.056 E2.16165
G1 F8640
G1 X112.091 Y135.765 E-0.76000
G1 E-0.04000 F2100.00000
G1 Z0.800 F10800.000
G1 X138.911 Y145.850
G1 Z0.200
G1 E0.80000 F2100.00000
G1 F1200
G1 X138.935 Y145.470 E0.01192
G1 X138.989 Y145.259 E0.00684
G1 X139.070 Y145.056 E0.00684
G1 X139.264 Y144.751 E0.01133
G1 X139.425 Y144.579 E0.00742
G1 X139.733 Y144.355 E0.01192
G1 X140.104 Y144.208 E0.01250
G1 X140.477 Y144.161 E0.01178
G1 X140.717 Y144.175 E0.00753
G1 X141.068 Y144.265 E0.01137
G1 X141.282 Y144.366 E0.00742
G1 X141.575 Y144.579 E0.01134
G1 X141.736 Y144.751 E0.00742
G1 X141.930 Y145.056 E0.01133
G1 X142.017 Y145.276 E0.00742
G1 X142.089 Y145.650 E0.01193
G1 X142.065 Y146.030 E0.01192
G1 X142.006 Y146.259 E0.00742
G1 X141.844 Y146.603 E0.01193
G1 X141.590 Y146.910 E0.01251
G1 X141.282 Y147.134 E0.01192
G1 X141.085 Y147.227 E0.00684
G1 X140.877 Y147.294 E0.00684
G1 X140.500 Y147.342 E0.01192
G1 X140.123 Y147.294 E0.01192
G1 X139.915 Y147.227 E0.00684
G1 X139.718 Y147.134 E0.00684
G1 X139.425 Y146.921 E0.01134
G1 X139.264 Y146.749 E0.00742
G1 X139.070 Y146.444 E0.01133
G1 X138.983 Y146.224 E0.00742
G1 X138.923 Y145.909 E0.01004
G1 X139.349 Y145.376 F10800.000
G1 F1200
G1 X139.407 Y145.228 E0.00498
G1 X139.563 Y144.983 E0.00910
G1 X139.676 Y144.863 E0.00518
G1 X139.916 Y144.688 E0.00931
G1 X140.199 Y144.576 E0.00952
G1 X140.489 Y144.539 E0.00919
G1 X140.658 Y144.549 E0.00530
G1 X140.940 Y144.622 E0.00912
G1 X141.089 Y144.692 E0.00519
G1 X141.324 Y144.863 E0.00910
G1 X141.437 Y144.983 E0.00518
G1 X141.593 Y145.228 E0.00910
G1 X141.654 Y145.382 E0.00519
G1 X141.709 Y145.674 E0.00931
G1 X141.691 Y145.970 E0.00931
G1 X141.650 Y146.130 E0.00518
G1 X141.523 Y146.399 E0.00931
G1 X141.329 Y146.633 E0.00952
G1 X141.089 Y146.808 E0.00931
G1 X140.795 Y146.924 E0.00993
G1 X140.500 Y146.962 E0.00931
G1 X140.205 Y146.924 E0.00931
G1 X139.911 Y146.808 E0.00993
G1 X139.676 Y146.637 E0.00910
G1 X139.563 Y146.517 E0.00518
G1 X139.407 Y146.272 E0.00910
G1 X139.346 Y146.118 E0.00519
G1 X139.291 Y145.826 E0.00931
G1 X139.309 Y145.530 E0.00931
G1 X139.334 Y145.434 E0.00309
G1 X139.240 Y145.260 F10800.000
G1 F8640
G1 X139.407 Y145.228 E-0.05042
G1 X139.563 Y144.983 E-0.06702
G1 X139.676 Y144.863 E-0.03818
G1 X139.916 Y144.688 E-0.06857
G1 X140.199 Y144.576 E-0.07012
