; generated by PrusaSlicer 2.4.2+linux-x64-GTK3 on 2022-07-21 at 22:19:34 UTC

; 

; external perimeters extrusion width = 0.45mm
; perimeters extrusion width = 0.45mm
; infill extrusion width = 0.45mm
; solid infill extrusion width = 0.45mm
; top infill extrusion width = 0.40mm
; support material extrusion width = 0.35mm
; first layer extrusion width = 0.42mm

M73 P0 R83
M73 Q0 S84
M107
;TYPE:Custom
M862.3 P "MK3S" ; printer model check
M862.1 P0.4 ; nozzle diameter check
M115 U3.9.3 ; tell printer latest fw version
G90 ; use absolute coordinates
M83 ; extruder relative mode
M104 S215 ; set extruder temp
M140 S60 ; set bed temp
M190 S60 ; wait for bed temp
M109 S215 ; wait for extruder temp
G28 W ; home all without mesh bed level
G80 ; mesh bed leveling
G1 Y-3.0 F1000.0 ; go outside print area
G92 E0.0
G1 X60.0 E9.0 F1000.0 ; intro line
G1 X100.0 E12.5 F1000.0 ; intro line
G92 E0.0
M221 S95

; Don't change E values below. Excessive value can damage the printer.
M907 E430 ; set extruder motor current
G21 ; set units to millimeters
G90 ; use absolute coordinates
M83 ; use relative distances for extrusion
M900 K0.05 ; Filament gcode LA 1.5
M900 K30 ; Filament gcode LA 1.0
M107
;LAYER_CHANGE
;Z:0.2
;HEIGHT:0.2
;BEFORE_LAYER_CHANGE
G92 E0.0
;0.2


G1 E-.8 F2100
G1 Z.4 F10800
;AFTER_LAYER_CHANGE
;0.2
G1 X94.621 Y63.541
G1 Z.2
G1 E.8 F2100
M204 S1000
;TYPE:Skirt/Brim
;WIDTH:0.42
G1 F1200
G1 X95.019 Y62.948 E.02239
G1 X97.948 Y60.019 E.12987
G1 X99.322 Y59.343 E.04803
G1 X139.069 Y54.173 E1.25671
G1 X140.806 Y54.078 E.05457
G1 X142.733 Y54.321 E.06088
G1 X143.96 Y54.68 E.04007
G1 X157.18 Y59.465 E.44084
G1 X158.052 Y60.019 E.03239
G1 X160.981 Y62.948 E.12987
G1 X161.677 Y64.629 E.05704
G1 X161.677 Y142.371 E2.43755
G1 X160.981 Y144.052 E.05704
G1 X158.052 Y146.981 E.12987
G1 X157.597 Y147.337 E.01811
G1 X145.265 Y154.744 E.45105
G1 X144.392 Y155.154 E.03024
G1 X143.326 Y155.526 E.0354
G1 X141.471 Y155.88 E.05922
G1 X140.343 Y155.927 E.0354
G1 X139.011 Y155.819 E.04189
G1 X98.552 Y149.703 E1.28297
G1 X97.227 Y149.033 E.04656
G1 X96.714 Y148.386 E.02589
G1 X89.506 Y135.264 E.46942
G1 X88.98 Y134.1 E.04005
G1 X88.682 Y133.183 E.03024
G1 X88.423 Y131.931 E.04008
G1 X88.328 Y130.806 E.0354
G1 X88.37 Y79.529 E1.60776
G1 X88.604 Y78.121 E.04474
M73 Q0 S83
G1 X88.98 Y76.9 E.04007
G1 X94.508 Y63.709 E.44844
G1 X94.588 Y63.591 E.00447
;WIPE_START
G1 F8640
G1 X95.019 Y62.948 E-.17876
G1 X96.799 Y61.168 E-.58124
;WIPE_END
G1 E-.04 F2100
G1 Z.6 F10800
G1 X97.443 Y64.598
G1 Z.2
G1 E.8 F2100
G1 F1200
G1 X98.111 Y63.618 E.03719
G1 X99.068 Y62.751 E.04047
G1 X99.967 Y62.285 E.03177
G1 X101.19 Y61.987 E.03948
G1 X133.327 Y61.987 E1.00761
G1 X133.703 Y61.05 E.03166
G1 X134.187 Y60.177 E.03127
G1 X134.793 Y59.363 E.03183
G1 X135.386 Y58.746 E.02683
G1 X136.066 Y58.185 E.02763
G1 X136.877 Y57.668 E.03015
G1 X137.686 Y57.284 E.02809
G1 X138.534 Y56.999 E.02806
G1 X139.567 Y56.795 E.03301
G1 X140.395 Y56.738 E.026
G1 X141.224 Y56.772 E.02603
G1 X142.169 Y56.925 E.03001
G1 X143.077 Y57.193 E.02968
G1 X143.996 Y57.6 E.03153
G1 X144.84 Y58.118 E.03104
G1 X145.625 Y58.756 E.03171
G1 X146.294 Y59.467 E.0306
G1 X146.859 Y60.25 E.03028
G1 X147.292 Y61.039 E.02822
G1 X147.674 Y61.994 E.03225
G1 X155.306 Y62.061 E.23931
G1 X156.443 Y62.464 E.03782
G1 X157.371 Y63.101 E.0353
G1 X158.287 Y64.121 E.04299
G1 X158.651 Y64.797 E.02406
G1 X158.902 Y65.498 E.02336
G1 X159.014 Y140.825 E2.36182
G1 X158.557 Y142.402 E.05146
G1 X157.923 Y143.343 E.03559
G1 X157.064 Y144.154 E.03703
G1 X156.145 Y144.672 E.03308
G1 X155.129 Y144.97 E.03318
G1 X148.005 Y145.01 E.22339
G1 X148 Y146.186 E.03689
M73 P0 R82
G1 X147.881 Y147.152 E.03051
G1 X147.653 Y148.047 E.02897
G1 X147.28 Y148.986 E.0317
G1 X146.834 Y149.791 E.02884
G1 X146.297 Y150.528 E.02859
G1 X145.682 Y151.19 E.02833
G1 X145.008 Y151.76 E.02767
G1 X144.116 Y152.336 E.03329
G1 X143.308 Y152.718 E.02802
G1 X142.465 Y153.001 E.02788
G1 X141.604 Y153.181 E.02759
G1 X140.72 Y153.26 E.02783
G1 X139.608 Y153.21 E.03489
G1 X138.659 Y153.034 E.03027
G1 X137.751 Y152.742 E.0299
G1 X136.876 Y152.331 E.0303
G1 X136.079 Y151.824 E.02962
G1 X135.366 Y151.235 E.02898
G1 X134.716 Y150.545 E.02973
G1 X134.15 Y149.766 E.0302
G1 X133.701 Y148.947 E.02926
G1 X133.362 Y148.095 E.02877
G1 X133.118 Y147.149 E.03064
G1 X133 Y146.186 E.03042
G1 X132.996 Y145.013 E.03675
G1 X101.173 Y145.013 E.9978
G1 X99.599 Y144.557 E.05139
G1 X98.664 Y143.929 E.0353
G1 X97.887 Y143.117 E.03526
G1 X97.327 Y142.146 E.03513
G1 X97.03 Y141.117 E.03357
G1 X97 Y137.85 E.10244
G1 X96.217 Y137.658 E.02528
G1 X95.29 Y137.293 E.03123
G1 X94.394 Y136.792 E.03218
G1 X93.679 Y136.262 E.02791
G1 X93.033 Y135.654 E.02781
G1 X92.419 Y134.912 E.03019
G1 X91.928 Y134.14 E.02868
G1 X91.543 Y133.335 E.02798
G1 X91.22 Y132.356 E.03233
G1 X91.059 Y131.537 E.02617
G1 X90.989 Y130.703 E.02625
G1 X91.049 Y129.539 E.03656
G1 X91.23 Y128.604 E.02984
G1 X91.508 Y127.751 E.02815
G1 X91.933 Y126.851 E.03119
G1 X92.438 Y126.061 E.02941
G1 X93.005 Y125.377 E.02785
G1 X93.652 Y124.761 E.02803
G1 X94.438 Y124.18 E.03064
G1 X95.368 Y123.671 E.03323
G1 X96.222 Y123.341 E.02872
G1 X96.987 Y123.152 E.02468
G1 X96.987 Y87.848 E1.10692
G1 X96.222 Y87.659 E.02469
G1 X95.345 Y87.318 E.0295
G1 X94.417 Y86.806 E.03324
G1 X93.671 Y86.256 E.02905
G1 X93.007 Y85.625 E.02873
G1 X92.393 Y84.876 E.03037
G1 X91.89 Y84.071 E.02976
G1 X91.5 Y83.229 E.02908
G1 X91.184 Y82.209 E.03348
G1 X91.031 Y81.313 E.0285
G1 X90.987 Y80.429 E.02776
G1 X91.045 Y79.568 E.02704
G1 X91.201 Y78.719 E.02706
G1 X91.515 Y77.735 E.0324
G1 X91.904 Y76.903 E.02879
G1 X92.393 Y76.124 E.02885
G1 X93.007 Y75.375 E.03035
G1 X93.671 Y74.744 E.02873
G1 X94.417 Y74.194 E.02905
G1 X95.345 Y73.682 E.03324
G1 X96.222 Y73.341 E.0295
G1 X96.987 Y73.152 E.02469
G1 X96.987 Y66.173 E.21882
G1 X97.426 Y64.656 E.04953
G1 X97.787 Y64.762 F10800
G1 F1200
G1 X98.381 Y63.883 E.03325
G1 X99.303 Y63.047 E.03902
G1 X100.08 Y62.645 E.02743
G1 X101.214 Y62.364 E.03664
G1 X133.63 Y62.364 E1.01638
G1 X133.739 Y61.967 E.01291
G1 X134.039 Y61.222 E.02517
G1 X134.497 Y60.392 E.02973
G1 X135.074 Y59.615 E.03033
G1 X135.635 Y59.03 E.02543
G1 X136.279 Y58.497 E.02621
G1 X137.05 Y58.004 E.02869
G1 X137.817 Y57.638 E.02665
G1 X138.643 Y57.36 E.02731
G1 X139.606 Y57.17 E.03077
G1 X140.39 Y57.115 E.02465
G1 X141.197 Y57.148 E.02535
G1 X142.074 Y57.29 E.02785
G1 X142.936 Y57.543 E.02816
G1 X143.811 Y57.929 E.02997
G1 X144.613 Y58.419 E.02946
G1 X145.359 Y59.025 E.03015
G1 X145.996 Y59.698 E.02906
G1 X146.534 Y60.441 E.02878
G1 X146.956 Y61.21 E.02748
G1 X147.28 Y62.026 E.02754
G1 X147.372 Y62.369 E.01113
G1 X155.212 Y62.428 E.24582
G1 X156.252 Y62.79 E.03455
G1 X157.107 Y63.371 E.03241
G1 X157.967 Y64.321 E.04017
G1 X158.301 Y64.938 E.02199
G1 X158.536 Y65.595 E.02189
G1 X158.637 Y140.798 E2.35794
G1 X158.204 Y142.266 E.04797
G1 X157.624 Y143.112 E.03218
G1 X156.823 Y143.863 E.03443
G1 X156.018 Y144.316 E.02896
G1 X155.049 Y144.6 E.03167
G1 X147.629 Y144.634 E.23266
G1 X147.625 Y146.151 E.04757
G1 X147.508 Y147.093 E.02977
G1 X147.291 Y147.942 E.02746
G1 X146.944 Y148.815 E.02945
G1 X146.521 Y149.579 E.02739
G1 X146.013 Y150.28 E.02716
G1 X145.429 Y150.91 E.02691
G1 X144.774 Y151.464 E.02693
G1 X143.943 Y152 E.031
G1 X143.177 Y152.365 E.02659
G1 X142.377 Y152.634 E.02647
G1 X141.538 Y152.81 E.02688
G1 X140.7 Y152.883 E.02638
G1 X139.664 Y152.837 E.0325
G1 X138.74 Y152.665 E.02947
G1 X137.879 Y152.387 E.02838
G1 X137.068 Y152.006 E.02808
G1 X136.31 Y151.526 E.02815
G1 X135.632 Y150.968 E.02751
G1 X135.014 Y150.314 E.02821
G1 X134.463 Y149.554 E.02944
G1 X134.038 Y148.777 E.02776
G1 X133.717 Y147.967 E.02732
G1 X133.491 Y147.09 E.0284
G1 X133.377 Y146.173 E.02897
G1 X133.372 Y144.636 E.04818
G1 X101.2 Y144.636 E1.00873
G1 X99.735 Y144.205 E.04791
G1 X98.895 Y143.63 E.03191
G1 X98.176 Y142.873 E.03271
G1 X97.682 Y142.017 E.031
G1 X97.407 Y141.087 E.03041
G1 X97.375 Y137.553 E.11081
G1 X96.343 Y137.302 E.03328
G1 X95.44 Y136.946 E.03042
G1 X94.609 Y136.482 E.02988
G1 X93.929 Y135.98 E.02648
G1 X93.301 Y135.387 E.02708
G1 X92.717 Y134.681 E.02872
G1 X92.263 Y133.967 E.02655
G1 X91.897 Y133.205 E.0265
G1 X91.588 Y132.272 E.03082
G1 X91.431 Y131.475 E.02546
G1 X91.366 Y130.685 E.02486
G1 X91.425 Y129.572 E.03495
G1 X91.592 Y128.71 E.02754
G1 X91.854 Y127.901 E.02666
G1 X92.269 Y127.023 E.03043
G1 X92.737 Y126.293 E.0272
M73 P1 R82
G1 X93.273 Y125.642 E.02643
G1 X93.903 Y125.042 E.02729
G1 X94.651 Y124.491 E.02913
G1 X95.516 Y124.018 E.03088
G1 X96.347 Y123.697 E.02795
G1 X97.364 Y123.448 E.03282
M73 Q1 S83
G1 X97.364 Y87.552 E1.12551
G1 X96.347 Y87.303 E.03281
G1 X95.494 Y86.971 E.02871
G1 X94.631 Y86.496 E.03089
G1 X93.905 Y85.96 E.02829
G1 X93.275 Y85.36 E.02726
G1 X92.693 Y84.647 E.02889
G1 X92.227 Y83.901 E.02756
G1 X91.856 Y83.105 E.02755
G1 X91.553 Y82.133 E.03192
G1 X91.407 Y81.282 E.02705
G1 X91.364 Y80.443 E.02636
G1 X91.421 Y79.605 E.02634
G1 X91.57 Y78.8 E.02566
G1 X91.87 Y77.862 E.03089
G1 X92.24 Y77.074 E.02728
G1 X92.693 Y76.353 E.02669
G1 X93.275 Y75.64 E.02888
G1 X93.905 Y75.04 E.02726
G1 X94.631 Y74.504 E.02829
G1 X95.494 Y74.029 E.03089
G1 X96.347 Y73.697 E.02871
G1 X97.364 Y73.448 E.03281
G1 X97.364 Y66.2 E.22725
G1 X97.77 Y64.82 E.04513
G1 X98.124 Y64.924 F10800
G1 F1200
G1 X98.652 Y64.146 E.02948
G1 X99.5 Y63.369 E.03606
G1 X100.195 Y63.005 E.02459
G1 X101.238 Y62.741 E.03373
G1 X133.919 Y62.741 E1.02471
G1 X134.094 Y62.096 E.02092
G1 X134.384 Y61.373 E.02445
G1 X134.808 Y60.606 E.02747
G1 X135.355 Y59.867 E.02883
G1 X135.885 Y59.312 E.02404
G1 X136.493 Y58.808 E.02478
G1 X137.223 Y58.339 E.02721
G1 X137.969 Y57.983 E.02591
G1 X138.751 Y57.722 E.02585
G1 X139.644 Y57.546 E.02854
G1 X140.406 Y57.492 E.02394
G1 X141.17 Y57.524 E.02399
G1 X142.002 Y57.66 E.02642
G1 X142.817 Y57.901 E.02667
G1 X143.646 Y58.268 E.02843
G1 X144.405 Y58.733 E.02789
G1 X145.111 Y59.309 E.02859
G1 X145.698 Y59.93 E.02678
G1 X146.21 Y60.634 E.02729
G1 X146.61 Y61.36 E.026
G1 X146.925 Y62.154 E.02677
G1 X147.079 Y62.744 E.01914
G1 X155.119 Y62.794 E.25211
G1 X156.063 Y63.117 E.03128
G1 X156.845 Y63.642 E.02952
G1 X157.647 Y64.522 E.03733
G1 X157.951 Y65.079 E.01989
G1 X158.17 Y65.692 E.02041
G1 X158.259 Y140.772 E2.35408
G1 X157.876 Y142.079 E.04271
G1 X157.351 Y142.851 E.0293
G1 X156.582 Y143.571 E.03301
G1 X155.855 Y143.976 E.0261
G1 X154.97 Y144.231 E.02886
G1 X147.252 Y144.258 E.242
G1 X147.249 Y146.116 E.05827
G1 X147.135 Y147.035 E.02902
G1 X146.929 Y147.836 E.02594
G1 X146.608 Y148.643 E.02724
G1 X146.209 Y149.368 E.02594
G1 X145.729 Y150.033 E.02571
G1 X145.161 Y150.644 E.02617
G1 X144.54 Y151.168 E.02547
G1 X143.769 Y151.665 E.02875
G1 X143.045 Y152.011 E.02515
G1 X142.267 Y152.273 E.02575
G1 X141.473 Y152.439 E.02545
G1 X140.68 Y152.507 E.02495
G1 X139.72 Y152.463 E.03014
G1 X138.844 Y152.303 E.02793
G1 X138.027 Y152.04 E.02688
G1 X137.259 Y151.681 E.02659
G1 X136.54 Y151.227 E.02666
G1 X135.881 Y150.684 E.02676
G1 X135.297 Y150.064 E.02672
G1 X134.788 Y149.362 E.0272
G1 X134.384 Y148.627 E.0263
G1 X134.08 Y147.861 E.02583
G1 X133.859 Y147.008 E.02764
G1 X133.753 Y146.138 E.02746
G1 X133.749 Y144.259 E.05892
G1 X101.227 Y144.259 E1.01969
G1 X99.922 Y143.876 E.04267
G1 X99.154 Y143.355 E.02908
G1 X98.465 Y142.63 E.03136
G1 X98.036 Y141.886 E.02692
G1 X97.783 Y141.056 E.02721
G1 X97.748 Y137.207 E.12068
G1 X97.197 Y137.132 E.01746
G1 X96.449 Y136.94 E.0242
G1 X95.613 Y136.611 E.02819
G1 X94.822 Y136.171 E.02837
G1 X94.179 Y135.697 E.02505
G1 X93.583 Y135.138 E.02562
G1 X93.029 Y134.468 E.02726
G1 X92.598 Y133.793 E.02511
G1 X92.242 Y133.053 E.02576
G1 X91.955 Y132.187 E.02859
G1 X91.806 Y131.433 E.02409
G1 X91.743 Y130.667 E.02411
G1 X91.8 Y129.606 E.03333
G1 X91.955 Y128.814 E.02527
G1 X92.201 Y128.05 E.02516
G1 X92.604 Y127.195 E.02966
G1 X93.035 Y126.523 E.02502
G1 X93.542 Y125.907 E.02501
G1 X94.155 Y125.323 E.02655
G1 X94.844 Y124.815 E.02684
G1 X95.664 Y124.365 E.02933
G1 X96.453 Y124.059 E.02652
G1 X97.197 Y123.868 E.0241
G1 X97.741 Y123.794 E.0172
G1 X97.741 Y87.206 E1.14719
G1 X97.197 Y87.132 E.0172
G1 X96.453 Y86.941 E.0241
G1 X95.664 Y86.635 E.02653
G1 X94.844 Y86.185 E.02933
G1 X94.156 Y85.678 E.0268
G1 X93.559 Y85.112 E.02578
G1 X93.006 Y84.436 E.0274
G1 X92.564 Y83.731 E.02607
G1 X92.204 Y82.957 E.02678
G1 X91.923 Y82.056 E.02959
G1 X91.783 Y81.251 E.02562
G1 X91.741 Y80.456 E.02496
G1 X91.793 Y79.662 E.02494
G1 X91.938 Y78.88 E.02493
G1 X92.216 Y78.011 E.02864
G1 X92.566 Y77.265 E.02582
G1 X93.006 Y76.564 E.02595
G1 X93.559 Y75.888 E.02739
G1 X94.156 Y75.322 E.02578
G1 X94.844 Y74.815 E.0268
G1 X95.664 Y74.365 E.02933
G1 X96.453 Y74.059 E.02652
G1 X97.197 Y73.868 E.0241
G1 X97.741 Y73.794 E.0172
G1 X97.741 Y66.227 E.23725
G1 X98.107 Y64.981 E.04073
G1 X98.467 Y65.089 F10800
G1 F1200
G1 X98.922 Y64.41 E.02564
G1 X99.737 Y63.664 E.03462
G1 X100.311 Y63.365 E.0203
G1 X101.262 Y63.118 E.03082
G1 X134.209 Y63.118 E1.03302
G1 X134.448 Y62.226 E.02894
G1 X134.73 Y61.524 E.02372
G1 X135.119 Y60.82 E.02523
G1 X135.636 Y60.118 E.02734
G1 X136.135 Y59.595 E.02265
G1 X136.707 Y59.118 E.02336
G1 X137.396 Y58.674 E.02571
G1 X138.121 Y58.329 E.02516
G1 X138.858 Y58.083 E.02438
G1 X139.682 Y57.921 E.02632
G1 X140.421 Y57.869 E.02323
G1 X141.142 Y57.901 E.02261
G1 X141.928 Y58.03 E.025
G1 X142.698 Y58.259 E.02517
G1 X143.481 Y58.607 E.02688
G1 X144.196 Y59.048 E.02632
G1 X144.863 Y59.593 E.02702
G1 X145.415 Y60.18 E.02526
G1 X145.886 Y60.827 E.02509
G1 X146.264 Y61.511 E.02451
G1 X146.57 Y62.282 E.02601
G1 X146.785 Y63.12 E.02714
G1 X155.029 Y63.162 E.25847
G1 X155.876 Y63.445 E.02803
G1 X156.583 Y63.915 E.02661
G1 X157.328 Y64.724 E.03448
G1 X157.601 Y65.221 E.01776
G1 X157.804 Y65.788 E.01891
G1 X157.882 Y140.744 E2.35018
G1 X157.523 Y141.941 E.0392
G1 X157.078 Y142.59 E.02466
G1 X156.342 Y143.279 E.03162
G1 X155.693 Y143.634 E.02319
G1 X154.893 Y143.861 E.02608
G1 X146.875 Y143.882 E.25139
G1 X146.873 Y146.082 E.06898
G1 X146.763 Y146.976 E.02826
G1 X146.567 Y147.73 E.02441
G1 X146.272 Y148.472 E.02503
G1 X145.884 Y149.176 E.0252
G1 X145.43 Y149.802 E.02425
G1 X144.893 Y150.379 E.02473
G1 X144.307 Y150.872 E.02402
G1 X143.596 Y151.331 E.02653
G1 X142.913 Y151.658 E.02372
G1 X142.179 Y151.907 E.02433
G1 X141.429 Y152.064 E.02402
G1 X140.66 Y152.13 E.0242
G1 X139.774 Y152.09 E.02779
G1 X138.946 Y151.94 E.02639
G1 X138.176 Y151.693 E.02536
G1 X137.43 Y151.344 E.02583
G1 X136.752 Y150.915 E.02516
G1 X136.131 Y150.402 E.02527
G1 X135.58 Y149.815 E.02523
G1 X135.112 Y149.17 E.02499
G1 X134.73 Y148.476 E.02485
G1 X134.441 Y147.754 E.02435
G1 X134.232 Y146.949 E.02609
G1 X134.128 Y146.104 E.0267
G1 X134.126 Y143.882 E.06966
G1 X101.255 Y143.882 E1.03063
G1 X100.059 Y143.524 E.03917
G1 X99.414 Y143.082 E.02451
G1 X98.754 Y142.387 E.03005
G1 X98.389 Y141.753 E.02293
G1 X98.16 Y141.024 E.02397
G1 X98.123 Y136.876 E.13006
G1 X97.279 Y136.764 E.02667
G1 X96.554 Y136.578 E.02347
G1 X95.785 Y136.275 E.02593
G1 X95.035 Y135.859 E.02686
G1 X94.428 Y135.414 E.02361
G1 X93.866 Y134.887 E.02416
G1 X93.34 Y134.255 E.02577
G1 X92.922 Y133.6 E.02437
G1 X92.587 Y132.901 E.02431
G1 X92.323 Y132.102 E.02637
G1 X92.178 Y131.371 E.02338
M73 Q1 S82
G1 X92.12 Y130.649 E.0227
G1 X92.173 Y129.664 E.03093
G1 X92.317 Y128.919 E.0238
G1 X92.556 Y128.178 E.02442
G1 X92.929 Y127.388 E.02738
G1 X93.334 Y126.754 E.02358
G1 X93.825 Y126.156 E.02428
G1 X94.406 Y125.605 E.02508
G1 X95.057 Y125.127 E.02533
G1 X95.834 Y124.702 E.02777
G1 X96.557 Y124.421 E.02432
G1 X97.279 Y124.236 E.02339
G1 X98.118 Y124.125 E.02651
G1 X98.118 Y86.875 E1.16794
G1 X97.279 Y86.764 E.02651
G1 X96.557 Y86.579 E.02338
G1 X95.834 Y86.298 E.02432
G1 X95.057 Y85.873 E.02777
G1 X94.406 Y85.395 E.02531
G1 X93.843 Y84.863 E.0243
G1 X93.319 Y84.225 E.02589
G1 X92.89 Y83.541 E.02531
G1 X92.551 Y82.81 E.02527
G1 X92.292 Y81.979 E.02729
G1 X92.159 Y81.219 E.02418
G1 X92.118 Y80.469 E.02354
G1 X92.169 Y79.698 E.02423
G1 X92.307 Y78.961 E.0235
G1 X92.563 Y78.159 E.02642
G1 X92.892 Y77.455 E.02435
G1 X93.319 Y76.775 E.0252
G1 X93.843 Y76.137 E.02588
G1 X94.406 Y75.605 E.0243
G1 X95.057 Y75.127 E.02531
