; generated by PrusaSlicer 2.1.0+linux64 on 2020-08-17 at 11:55:16 UTC

; 

; external perimeters extrusion width = 0.45mm
; perimeters extrusion width = 0.45mm
; infill extrusion width = 0.45mm
; solid infill extrusion width = 0.45mm
; top infill extrusion width = 0.40mm
; support material extrusion width = 0.35mm
; first layer extrusion width = 0.42mm

M73 P0 R64
M73 Q0 S65
M201 X1000 Y1000 Z1000 E5000 ; sets maximum accelerations, mm/sec^2
M203 X200 Y200 Z12 E120 ; sets maximum feedrates, mm/sec
M204 P1250 R1250 T1250 ; sets acceleration (P, T) and retract acceleration (R), mm/sec^2
M205 X8.00 Y8.00 Z0.40 E1.50 ; sets the jerk limits, mm/sec
M205 S0 T0 ; sets the minimum extruding and travel feed rate, mm/sec
M107
M862.3 P "MK3S" ; printer model check
M862.1 P0.4 ; nozzle diameter check
M115 U3.8.1 ; tell printer latest fw version
G90 ; use absolute coordinates
M83 ; extruder relative mode
M104 S215 ; set extruder temp
M140 S60 ; set bed temp
M190 S60 ; wait for bed temp
M109 S215 ; wait for extruder temp
G28 W ; home all without mesh bed level
G80 ; mesh bed leveling
G1 Y-3.0 F1000.0 ; go outside print area
G92 E0.0
G1 X60.0 E9.0 F1000.0 ; intro line
M73 Q0 S65
M73 P0 R64
G1 X100.0 E12.5 F1000.0 ; intro line
G92 E0.0
M221 S95
G21 ; set units to millimeters
G90 ; use absolute coordinates
M83 ; use relative distances for extrusion
M900 K30 ; Filament gcode
;BEFORE_LAYER_CHANGE
G92 E0.0
;0.2


G1 E-0.80000 F2100.00000
G1 Z0.600 F10800.000
;AFTER_LAYER_CHANGE
;0.2
G1 X47.190 Y29.447
G1 Z0.200
G1 E0.80000 F2100.00000
M204 S1000
G1 F1200
G1 X48.270 Y28.919 E0.03769
G1 X90.294 Y12.660 E1.41278
G1 X91.559 Y12.391 E0.04057
G1 X200.192 Y12.376 E3.40611
G1 X201.070 Y12.483 E0.02773
G1 X202.174 Y12.848 E0.03645
G1 X202.881 Y13.246 E0.02545
G1 X203.755 Y13.979 E0.03576
G1 X204.269 Y14.613 E0.02559
G1 X204.817 Y15.632 E0.03627
G1 X205.053 Y16.388 E0.02483
G1 X205.188 Y17.514 E0.03557
G1 X205.188 Y192.507 E5.48676
G1 X205.055 Y193.648 E0.03604
G1 X204.825 Y194.396 E0.02452
G1 X204.480 Y195.101 E0.02460
G1 X203.806 Y196.014 E0.03559
G1 X203.202 Y196.568 E0.02570
G1 X202.195 Y197.190 E0.03713
G1 X201.082 Y197.561 E0.03679
G1 X200.222 Y197.671 E0.02716
G1 X91.607 Y197.661 E3.40555
G1 X90.333 Y197.401 E0.04077
G1 X48.319 Y182.146 E1.40147
G1 X47.303 Y181.669 E0.03518
G1 X46.614 Y181.168 E0.02672
G1 X45.804 Y180.290 E0.03745
G1 X45.221 Y179.255 E0.03727
G1 X44.950 Y178.421 E0.02749
G1 X44.811 Y177.244 E0.03714
G1 X44.812 Y33.787 E4.49802
G1 X44.945 Y32.649 E0.03590
G1 X45.175 Y31.900 E0.02457
G1 X45.519 Y31.198 E0.02452
G1 X46.194 Y30.282 E0.03566
G1 X47.144 Y29.485 E0.03889
G1 F8640
G1 X48.270 Y28.919 E-0.29103
G1 X50.165 Y28.186 E-0.46897
G1 E-0.04000 F2100.00000
G1 Z0.800 F10800.000
G1 X144.616 Y98.277
G1 Z0.200
G1 E0.80000 F2100.00000
G1 F1200
G1 X144.829 Y97.984 E0.01134
G1 X145.001 Y97.822 E0.00742
G1 X145.306 Y97.629 E0.01133
G1 X145.526 Y97.541 E0.00742
G1 X145.900 Y97.470 E0.01193
G1 X146.280 Y97.494 E0.01192
G1 X146.509 Y97.553 E0.00742
G1 X146.853 Y97.715 E0.01193
G1 X147.160 Y97.969 E0.01251
G1 X147.384 Y98.277 E0.01192
G1 X147.477 Y98.474 E0.00684
G1 X147.544 Y98.681 E0.00684
G1 X147.592 Y99.059 E0.01192
G1 X147.544 Y99.436 E0.01192
G1 X147.477 Y99.643 E0.00684
G1 X147.384 Y99.841 E0.00684
G1 X147.171 Y100.133 E0.01134
G1 X146.999 Y100.295 E0.00742
G1 X146.694 Y100.489 E0.01133
G1 X146.474 Y100.576 E0.00742
G1 X146.100 Y100.647 E0.01193
G1 X145.720 Y100.623 E0.01192
G1 X145.491 Y100.565 E0.00742
G1 X145.147 Y100.403 E0.01193
G1 X144.840 Y100.148 E0.01251
G1 X144.616 Y99.841 E0.01192
G1 X144.523 Y99.643 E0.00684
G1 X144.456 Y99.436 E0.00684
G1 X144.408 Y99.059 E0.01192
G1 X144.456 Y98.681 E0.01192
G1 X144.591 Y98.331 E0.01177
G1 X144.875 Y98.613 F10800.000
G1 F1200
G1 X144.942 Y98.469 E0.00498
G1 X145.113 Y98.235 E0.00910
G1 X145.233 Y98.121 E0.00518
G1 X145.478 Y97.966 E0.00910
G1 X145.632 Y97.905 E0.00519
G1 X145.924 Y97.849 E0.00931
G1 X146.220 Y97.868 E0.00931
G1 X146.380 Y97.909 E0.00518
G1 X146.649 Y98.036 E0.00931
G1 X146.883 Y98.229 E0.00952
G1 X147.058 Y98.469 E0.00931
G1 X147.125 Y98.613 E0.00498
G1 X147.174 Y98.764 E0.00497
G1 X147.212 Y99.059 E0.00931
G1 X147.174 Y99.353 E0.00931
G1 X147.125 Y99.504 E0.00497
G1 X147.058 Y99.648 E0.00498
G1 X146.887 Y99.883 E0.00910
G1 X146.767 Y99.996 E0.00518
G1 X146.522 Y100.151 E0.00910
G1 X146.368 Y100.212 E0.00519
G1 X146.076 Y100.268 E0.00931
G1 X145.780 Y100.249 E0.00931
G1 X145.620 Y100.208 E0.00518
G1 X145.351 Y100.082 E0.00931
G1 X145.117 Y99.888 E0.00952
G1 X144.942 Y99.648 E0.00931
G1 X144.826 Y99.353 E0.00993
G1 X144.788 Y99.059 E0.00931
G1 X144.826 Y98.764 E0.00931
G1 X144.856 Y98.670 E0.00309
G1 X144.773 Y98.491 F10800.000
G1 F8640
G1 X144.942 Y98.469 E-0.05043
G1 X145.113 Y98.235 E-0.06703
G1 X145.233 Y98.121 E-0.03818
G1 X145.478 Y97.966 E-0.06702
G1 X145.632 Y97.905 E-0.03819
G1 X145.924 Y97.849 E-0.06859
G1 X146.220 Y97.868 E-0.06858
G1 X146.380 Y97.909 E-0.03817
G1 X146.649 Y98.036 E-0.06859
G1 X146.883 Y98.229 E-0.07013
G1 X147.058 Y98.469 E-0.06857
G1 X147.125 Y98.613 E-0.03665
G1 X147.174 Y98.764 E-0.03663
G1 X147.198 Y98.950 E-0.04325
G1 E-0.04000 F2100.00000
G1 Z0.800 F10800.000
G1 X105.592 Y83.809
G1 Z0.200
G1 E0.80000 F2100.00000
G1 F1200
G1 X105.544 Y84.186 E0.01193
G1 X105.477 Y84.393 E0.00683
G1 X105.384 Y84.591 E0.00684
G1 X105.171 Y84.883 E0.01134
G1 X104.999 Y85.045 E0.00742
G1 X104.694 Y85.239 E0.01133
G1 X104.474 Y85.326 E0.00742
G1 X104.100 Y85.397 E0.01193
G1 X103.720 Y85.373 E0.01192
G1 X103.491 Y85.315 E0.00742
G1 X103.147 Y85.153 E0.01193
G1 X102.840 Y84.898 E0.01251
G1 X102.616 Y84.591 E0.01192
G1 X102.523 Y84.393 E0.00684
G1 X102.456 Y84.186 E0.00683
G1 X102.408 Y83.809 E0.01193
G1 X102.456 Y83.431 E0.01193
G1 X102.523 Y83.224 E0.00683
G1 X102.616 Y83.027 E0.00684
G1 X102.829 Y82.734 E0.01134
G1 X103.001 Y82.572 E0.00742
G1 X103.306 Y82.378 E0.01133
G1 X103.526 Y82.291 E0.00742
G1 X103.900 Y82.220 E0.01193
G1 X104.280 Y82.244 E0.01192
G1 X104.509 Y82.303 E0.00742
G1 X104.853 Y82.465 E0.01193
G1 X105.160 Y82.719 E0.01251
G1 X105.384 Y83.027 E0.01192
G1 X105.477 Y83.224 E0.00684
G1 X105.544 Y83.431 E0.00683
G1 X105.584 Y83.749 E0.01004
G1 X105.125 Y83.363 F10800.000
G1 F1200
G1 X105.174 Y83.514 E0.00497
G1 X105.212 Y83.809 E0.00931
G1 X105.174 Y84.103 E0.00931
G1 X105.058 Y84.398 E0.00993
G1 X104.887 Y84.633 E0.00910
G1 X104.767 Y84.746 E0.00518
G1 X104.522 Y84.901 E0.00910
G1 X104.368 Y84.962 E0.00519
G1 X104.076 Y85.018 E0.00931
G1 X103.780 Y84.999 E0.00931
G1 X103.620 Y84.958 E0.00518
G1 X103.351 Y84.832 E0.00931
G1 X103.117 Y84.638 E0.00952
G1 X102.942 Y84.398 E0.00931
G1 X102.875 Y84.254 E0.00498
G1 X102.826 Y84.103 E0.00497
G1 X102.788 Y83.809 E0.00931
G1 X102.826 Y83.514 E0.00931
G1 X102.875 Y83.363 E0.00497
G1 X102.942 Y83.219 E0.00498
G1 X103.113 Y82.985 E0.00910
G1 X103.233 Y82.871 E0.00518
G1 X103.478 Y82.716 E0.00910
G1 X103.632 Y82.655 E0.00519
G1 X103.924 Y82.599 E0.00931
G1 X104.220 Y82.618 E0.00931
G1 X104.380 Y82.659 E0.00518
G1 X104.649 Y82.786 E0.00931
G1 X104.883 Y82.979 E0.00952
G1 X105.058 Y83.219 E0.00931
G1 X105.100 Y83.309 E0.00310
G1 X105.283 Y83.383 F10800.000
G1 F8640
G1 X105.174 Y83.514 E-0.05040
G1 X105.212 Y83.809 E-0.06859
G1 X105.174 Y84.103 E-0.06859
G1 X105.058 Y84.398 E-0.07313
G1 X104.887 Y84.633 E-0.06703
G1 X104.767 Y84.746 E-0.03817
G1 X104.522 Y84.901 E-0.06702
G1 X104.368 Y84.962 E-0.03819
G1 X104.076 Y85.018 E-0.06858
G1 X103.780 Y84.999 E-0.06859
G1 X103.620 Y84.958 E-0.03816
G1 X103.351 Y84.832 E-0.06860
G1 X103.201 Y84.708 E-0.04495
G1 E-0.04000 F2100.00000
G1 Z0.800 F10800.000
G1 X104.100 Y35.397
G1 Z0.200
G1 E0.80000 F2100.00000
G1 F1200
G1 X103.720 Y35.373 E0.01192
G1 X103.491 Y35.315 E0.00742
G1 X103.147 Y35.153 E0.01193
G1 X102.840 Y34.898 E0.01251
G1 X102.616 Y34.591 E0.01192
G1 X102.523 Y34.393 E0.00684
G1 X102.456 Y34.186 E0.00683
G1 X102.408 Y33.809 E0.01192
G1 X102.456 Y33.431 E0.01192
G1 X102.523 Y33.224 E0.00683
G1 X102.616 Y33.027 E0.00684
G1 X102.829 Y32.734 E0.01134
G1 X103.001 Y32.572 E0.00742
G1 X103.306 Y32.379 E0.01133
G1 X103.526 Y32.291 E0.00742
G1 X103.900 Y32.220 E0.01193
G1 X104.280 Y32.244 E0.01192
G1 X104.509 Y32.303 E0.00742
G1 X104.853 Y32.465 E0.01193
G1 X105.160 Y32.719 E0.01251
G1 X105.384 Y33.027 E0.01192
G1 X105.477 Y33.224 E0.00684
G1 X105.544 Y33.431 E0.00683
G1 X105.592 Y33.809 E0.01192
G1 X105.544 Y34.186 E0.01192
G1 X105.477 Y34.393 E0.00683
G1 X105.384 Y34.591 E0.00684
G1 X105.171 Y34.883 E0.01134
G1 X104.999 Y35.045 E0.00742
G1 X104.694 Y35.239 E0.01133
G1 X104.474 Y35.326 E0.00742
G1 X104.159 Y35.386 E0.01004
G1 X104.368 Y34.962 F10800.000
G1 F1200
G1 X104.076 Y35.018 E0.00931
G1 X103.780 Y34.999 E0.00931
G1 X103.620 Y34.958 E0.00518
G1 X103.351 Y34.832 E0.00931
G1 X103.117 Y34.638 E0.00952
G1 X102.942 Y34.398 E0.00931
G1 X102.826 Y34.103 E0.00993
G1 X102.788 Y33.809 E0.00931
G1 X102.826 Y33.514 E0.00931
G1 X102.942 Y33.219 E0.00993
G1 X103.113 Y32.985 E0.00910
G1 X103.233 Y32.871 E0.00518
G1 X103.478 Y32.716 E0.00910
G1 X103.632 Y32.655 E0.00519
G1 X103.924 Y32.599 E0.00931
G1 X104.220 Y32.618 E0.00931
G1 X104.380 Y32.659 E0.00518
G1 X104.649 Y32.786 E0.00931
G1 X104.883 Y32.979 E0.00952
G1 X105.058 Y33.219 E0.00931
G1 X105.125 Y33.363 E0.00498
G1 X105.174 Y33.514 E0.00497
G1 X105.212 Y33.809 E0.00931
G1 X105.174 Y34.103 E0.00931
G1 X105.125 Y34.254 E0.00497
G1 X105.058 Y34.398 E0.00498
G1 X104.887 Y34.633 E0.00910
G1 X104.767 Y34.746 E0.00518
G1 X104.522 Y34.901 E0.00910
G1 X104.424 Y34.940 E0.00330
G1 X104.299 Y35.251 F10800.000
G1 F8640
G1 X104.076 Y35.018 E-0.08223
G1 X103.780 Y34.999 E-0.06859
G1 X103.620 Y34.958 E-0.03816
G1 X103.351 Y34.832 E-0.06860
G1 X103.117 Y34.638 E-0.07013
G1 X102.942 Y34.398 E-0.06857
G1 X102.826 Y34.103 E-0.07313
G1 X102.788 Y33.809 E-0.06859
G1 X102.826 Y33.514 E-0.06859
G1 X102.942 Y33.219 E-0.07313
G1 X103.113 Y32.985 E-0.06703
G1 X103.155 Y32.945 E-0.01325
G1 E-0.04000 F2100.00000
G1 Z0.800 F10800.000
G1 X144.840 Y18.648
G1 Z0.200
G1 E0.80000 F2100.00000
G1 F1200
G1 X144.616 Y18.341 E0.01192
G1 X144.523 Y18.143 E0.00684
G1 X144.456 Y17.936 E0.00684
G1 X144.408 Y17.559 E0.01192
G1 X144.456 Y17.181 E0.01192
G1 X144.523 Y16.974 E0.00684
G1 X144.616 Y16.777 E0.00684
G1 X144.839 Y16.470 E0.01190
G1 X145.122 Y16.235 E0.01153
G1 X145.337 Y16.113 E0.00775
G1 X145.684 Y16.001 E0.01143
G1 X145.919 Y15.971 E0.00742
G1 X146.298 Y15.995 E0.01193
G1 X146.660 Y16.113 E0.01193
G1 X146.867 Y16.227 E0.00741
G1 X147.160 Y16.469 E0.01193
G1 X147.384 Y16.777 E0.01192
G1 X147.477 Y16.974 E0.00684
G1 X147.544 Y17.181 E0.00684
G1 X147.592 Y17.559 E0.01192
G1 X147.544 Y17.936 E0.01192
G1 X147.477 Y18.143 E0.00684
G1 X147.384 Y18.341 E0.00684
G1 X147.160 Y18.648 E0.01192
G1 X146.867 Y18.891 E0.01193
G1 X146.660 Y19.005 E0.00741
G1 X146.316 Y19.116 E0.01134
G1 X146.081 Y19.146 E0.00742
G1 X145.702 Y19.122 E0.01193
G1 X145.340 Y19.005 E0.01193
G1 X145.133 Y18.891 E0.00741
G1 X144.886 Y18.687 E0.01004
G1 X144.875 Y18.004 F10800.000
G1 F1200
G1 X144.826 Y17.853 E0.00497
G1 X144.788 Y17.559 E0.00931
G1 X144.826 Y17.264 E0.00931
G1 X144.875 Y17.113 E0.00497
G1 X144.942 Y16.970 E0.00497
G1 X145.117 Y16.729 E0.00930
G1 X145.337 Y16.547 E0.00897
G1 X145.489 Y16.461 E0.00550
G1 X145.767 Y16.371 E0.00914
G1 X145.931 Y16.350 E0.00518
G1 X146.227 Y16.368 E0.00931
G1 X146.510 Y16.460 E0.00931
G1 X146.654 Y16.540 E0.00518
G1 X146.883 Y16.729 E0.00931
G1 X147.058 Y16.970 E0.00931
G1 X147.125 Y17.113 E0.00497
G1 X147.174 Y17.264 E0.00497
G1 X147.212 Y17.559 E0.00931
G1 X147.174 Y17.853 E0.00931
G1 X147.125 Y18.004 E0.00498
G1 X147.058 Y18.148 E0.00497
G1 X146.883 Y18.388 E0.00931
G1 X146.654 Y18.577 E0.00931
G1 X146.510 Y18.657 E0.00518
G1 X146.233 Y18.747 E0.00910
G1 X146.069 Y18.768 E0.00518
G1 X145.773 Y18.749 E0.00931
G1 X145.490 Y18.657 E0.00931
G1 X145.346 Y18.577 E0.00518
G1 X145.117 Y18.388 E0.00931
G1 X144.942 Y18.148 E0.00931
G1 X144.900 Y18.059 E0.00309
G1 X144.717 Y17.984 F10800.000
G1 F8640
G1 X144.826 Y17.853 E-0.05041
G1 X144.788 Y17.559 E-0.06859
G1 X144.826 Y17.264 E-0.06859
G1 X144.875 Y17.113 E-0.03664
G1 X144.942 Y16.970 E-0.03663
G1 X145.117 Y16.729 E-0.06852
G1 X145.337 Y16.547 E-0.06606
G1 X145.489 Y16.461 E-0.04052
G1 X145.767 Y16.371 E-0.06728
G1 X145.931 Y16.350 E-0.03817
G1 X146.227 Y16.368 E-0.06859
G1 X146.510 Y16.460 E-0.06859
G1 X146.654 Y16.540 E-0.03815
G1 X146.799 Y16.659 E-0.04327
G1 E-0.04000 F2100.00000
G1 Z0.800 F10800.000
G1 X143.587 Y86.216
G1 Z0.200
G1 E0.80000 F2100.00000
G1 F1200
G1 X103.849 Y86.216 E1.24597
G1 X103.548 Y86.178 E0.00949
G1 X103.255 Y86.102 E0.00950
G1 X102.973 Y85.991 E0.00949
G1 X102.708 Y85.845 E0.00950
G1 X102.463 Y85.667 E0.00950
G1 X102.242 Y85.460 E0.00950
G1 X102.049 Y85.226 E0.00949
G1 X101.887 Y84.971 E0.00949
G1 X101.758 Y84.696 E0.00950
G1 X101.664 Y84.408 E0.00949
G1 X101.607 Y84.111 E0.00950
G1 X101.588 Y83.809 E0.00950
G1 X101.607 Y83.506 E0.00950
G1 X101.664 Y83.209 E0.00950
G1 X101.758 Y82.921 E0.00949
G1 X101.887 Y82.647 E0.00950
G1 X102.049 Y82.391 E0.00949
G1 X102.242 Y82.158 E0.00949
G1 X102.463 Y81.950 E0.00950
G1 X102.708 Y81.772 E0.00950
G1 X102.973 Y81.626 E0.00950
G1 X103.255 Y81.515 E0.00949
G1 X103.548 Y81.440 E0.00950
G1 X103.849 Y81.402 E0.00949
G1 X143.587 Y81.402 E1.24597
G1 X143.587 Y36.216 E1.41677
G1 X103.849 Y36.216 E1.24597
G1 X103.548 Y36.178 E0.00949
G1 X103.255 Y36.102 E0.00950
G1 X102.973 Y35.991 E0.00949
G1 X102.708 Y35.845 E0.00950
G1 X102.463 Y35.667 E0.00950
G1 X102.242 Y35.460 E0.00950
G1 X102.049 Y35.226 E0.00949
G1 X101.887 Y34.971 E0.00949
G1 X101.758 Y34.696 E0.00950
G1 X101.664 Y34.408 E0.00949
G1 X101.607 Y34.111 E0.00950
G1 X101.588 Y33.809 E0.00950
G1 X101.607 Y33.506 E0.00950
G1 X101.664 Y33.209 E0.00950
G1 X101.758 Y32.921 E0.00949
G1 X101.887 Y32.647 E0.00950
G1 X102.049 Y32.391 E0.00949
G1 X102.242 Y32.158 E0.00950
G1 X102.463 Y31.950 E0.00950
G1 X102.708 Y31.772 E0.00950
G1 X102.973 Y31.626 E0.00950
G1 X103.255 Y31.515 E0.00949
G1 X103.548 Y31.440 E0.00950
G1 X103.849 Y31.402 E0.00949
G1 X143.587 Y31.402 E1.24597
G1 X143.587 Y17.577 E0.43346
G1 X143.607 Y17.256 E0.01008
G1 X143.664 Y16.959 E0.00950
G1 X143.758 Y16.671 E0.00950
G1 X143.887 Y16.397 E0.00950
G1 X144.049 Y16.141 E0.00950
G1 X144.242 Y15.908 E0.00950
G1 X144.463 Y15.700 E0.00949
G1 X144.708 Y15.522 E0.00950
G1 X144.973 Y15.376 E0.00950
G1 X145.255 Y15.265 E0.00950
G1 X145.548 Y15.190 E0.00950
G1 X145.846 Y15.152 E0.00941
G1 X146.179 Y15.155 E0.01044
G1 X146.452 Y15.190 E0.00864
G1 X146.745 Y15.265 E0.00950
G1 X147.027 Y15.376 E0.00950
G1 X147.292 Y15.522 E0.00950
G1 X147.537 Y15.700 E0.00950
G1 X147.758 Y15.908 E0.00950
G1 X147.951 Y16.141 E0.00949
G1 X148.113 Y16.397 E0.00949
G1 X148.242 Y16.671 E0.00950
G1 X148.336 Y16.959 E0.00950
G1 X148.392 Y17.256 E0.00949
G1 X148.413 Y17.577 E0.01009
G1 X148.413 Y99.040 E2.55420
M73 Q1 S64
G1 X148.392 Y99.361 E0.01009
G1 X148.336 Y99.658 E0.00949
G1 X148.242 Y99.946 E0.00950
M73 P1 R63
G1 X148.113 Y100.221 E0.00950
G1 X147.951 Y100.476 E0.00949
G1 X147.758 Y100.710 E0.00949
G1 X147.537 Y100.917 E0.00950
G1 X147.292 Y101.095 E0.00950
G1 X147.027 Y101.241 E0.00950
G1 X146.748 Y101.351 E0.00941
G1 X146.425 Y101.431 E0.01043
G1 X146.151 Y101.466 E0.00864
G1 X145.849 Y101.466 E0.00950
G1 X145.548 Y101.428 E0.00949
G1 X145.255 Y101.352 E0.00950
G1 X144.973 Y101.241 E0.00950
G1 X144.708 Y101.095 E0.00950
G1 X144.463 Y100.917 E0.00950
G1 X144.242 Y100.710 E0.00950
G1 X144.049 Y100.476 E0.00949
G1 X143.887 Y100.221 E0.00950
G1 X143.758 Y99.947 E0.00950
G1 X143.664 Y99.658 E0.00950
G1 X143.607 Y99.361 E0.00950
G1 X143.587 Y99.040 E0.01008
G1 X143.587 Y86.276 E0.40022
G1 X143.210 Y86.593 F10800.000
G1 F1200
G1 X103.825 Y86.593 E1.23489
G1 X103.477 Y86.549 E0.01098
G1 X103.138 Y86.462 E0.01099
G1 X102.812 Y86.333 E0.01098
G1 X102.505 Y86.164 E0.01099
G1 X102.222 Y85.958 E0.01098
G1 X101.966 Y85.718 E0.01098
G1 X101.743 Y85.448 E0.01098
G1 X101.555 Y85.153 E0.01098
G1 X101.406 Y84.836 E0.01099
G1 X101.298 Y84.502 E0.01098
G1 X101.232 Y84.158 E0.01098
G1 X101.210 Y83.809 E0.01098
G1 X101.232 Y83.459 E0.01098
